images/arrow-left.svg

<svg fill="none" height="16" viewBox="0 0 16 16" width="16" xmlns="http://www.w3.org/2000/svg"><path clip-rule="evenodd" d="m7.53033 12.5303c-.29289.2929-.76777.2929-1.06066 0l-4-3.99997c-.29289-.29289-.29289-.76777 0-1.06066l4-4c.29289-.29289.76777-.29289 1.06066 0s.29289.76777 0 1.06066l-2.71967 2.71967h8.18934c.4142 0 .75.33579.75.75s-.3358.75-.75.75h-8.18934l2.71967 2.7197c.29289.2929.29289.7677 0 1.0606z" fill="#fff" fill-rule="evenodd"/></svg>

<svg width="16" height="16" viewBox="0 0 16 16" fill="none" xmlns="http://www.w3.org/2000/svg">
<path fill-rule="evenodd" clip-rule="evenodd" d="M7.53033 12.5303C7.23744 12.8232 6.76256 12.8232 6.46967 12.5303L2.46967 8.53033C2.17678 8.23744 2.17678 7.76256 2.46967 7.46967L6.46967 3.46967C6.76256 3.17678 7.23744 3.17678 7.53033 3.46967C7.82322 3.76256 7.82322 4.23744 7.53033 4.53033L4.81066 7.25L13 7.25C13.4142 7.25 13.75 7.58579 13.75 8C13.75 8.41421 13.4142 8.75 13 8.75L4.81066 8.75L7.53033 11.4697C7.82322 11.7626 7.82322 12.2374 7.53033 12.5303Z" fill="white"/>
</svg>
